src/img/header/frame.svg

<svg width="24" height="37" viewBox="0 0 24 37" fill="none" xmlns="http://www.w3.org/2000/svg">
<g clip-path="url(#clip0)">
<path d="M10.959 30.2643L6.52048 25.6286C5.97108 25.0571 6 24.15 6.57831 23.6071C7.15663 23.0643 8.0747 23.0929 8.6241 23.6643L12.0145 27.2071L15.3831 23.6714C15.9325 23.1 16.8434 23.0714 17.4289 23.6071C18.0072 24.15 18.0361 25.05 17.494 25.6286L13.0771 30.2643C12.4988 30.8643 11.5373 30.8643 10.959 30.2643ZM24 28V8.57143C24 3.84286 20.1108 0 15.3253 0H8.6747C3.88916 0 0 3.84286 0 8.57143V28C0 32.7286 3.88916 36.5714 8.6747 36.5714H15.3253C20.1108 36.5714 24 32.7286 24 28ZM15.3253 2.85714C18.5133 2.85714 21.1084 5.42143 21.1084 8.57143V28C21.1084 31.15 18.5133 33.7143 15.3253 33.7143H8.6747C5.48675 33.7143 2.89157 31.15 2.89157 28V8.57143C2.89157 5.42143 5.48675 2.85714 8.6747 2.85714H15.3253ZM12 6.42857C11.2048 6.42857 10.5542 7.07143 10.5542 7.85714C10.5542 8.64286 11.2048 9.28572 12 9.28572C12.7952 9.28572 13.4458 8.64286 13.4458 7.85714C13.4458 7.07143 12.7952 6.42857 12 6.42857ZM12 12.1429C11.2048 12.1429 10.5542 12.7857 10.5542 13.5714C10.5542 14.3571 11.2048 15 12 15C12.7952 15 13.4458 14.3571 13.4458 13.5714C13.4458 12.7857 12.7952 12.1429 12 12.1429ZM12 17.8571C11.2048 17.8571 10.5542 18.5 10.5542 19.2857C10.5542 20.0714 11.2048 20.7143 12 20.7143C12.7952 20.7143 13.4458 20.0714 13.4458 19.2857C13.4458 18.5 12.7952 17.8571 12 17.8571Z" fill="white"/>
</g>
<defs>
<clipPath id="clip0">
<rect width="24" height="36.5714" fill="white"/>
</clipPath>
</defs>
</svg>

<svg width="24" height="37" fill="none" xmlns="http://www.w3.org/2000/svg"><g clip-path="url(#clip0)"><path d="M10.959 30.264L6.52 25.63a1.42 1.42 0 01.058-2.022 1.462 1.462 0 012.046.057l3.39 3.543 3.37-3.536c.548-.571 1.46-.6 2.045-.064.578.543.607 1.443.065 2.022l-4.417 4.635c-.578.6-1.54.6-2.118 0zM24 28V8.571C24 3.843 20.11 0 15.325 0h-6.65C3.889 0 0 3.843 0 8.571V28c0 4.729 3.89 8.571 8.675 8.571h6.65C20.111 36.571 24 32.73 24 28zM15.325 2.857c3.188 0 5.783 2.564 5.783 5.714V28c0 3.15-2.595 5.714-5.783 5.714h-6.65c-3.188 0-5.783-2.564-5.783-5.714V8.571c0-3.15 2.595-5.714 5.783-5.714h6.65zM12 6.43c-.795 0-1.446.642-1.446 1.428 0 .786.65 1.429 1.446 1.429.795 0 1.446-.643 1.446-1.429S12.796 6.43 12 6.43zm0 5.714c-.795 0-1.446.643-1.446 1.428 0 .786.65 1.429 1.446 1.429.795 0 1.446-.643 1.446-1.429 0-.785-.65-1.428-1.446-1.428zm0 5.714c-.795 0-1.446.643-1.446 1.429 0 .785.65 1.428 1.446 1.428.795 0 1.446-.643 1.446-1.428 0-.786-.65-1.429-1.446-1.429z" fill="#fff"/></g><defs><clipPath id="clip0"><path fill="#fff" d="M0 0h24v36.571H0z"/></clipPath></defs></svg>
